!!!COM: Igor (Fyodorovich) Stravinsky
!!!OTL: [T397_Str-w55p17m102-112]
**kern	**kern	**dynam	**kern	**dynam	**kern	**kern	**kern	**kern	**kern	**kern	**kern	**dynam	**kern	**kern	**dynam
*part11	*part10	*part10	*part9	*part9	*part8	*part8	*part7	*part6	*part5	*part4	*part3	*part3	*part2	*part1	*part1
*staff12	*staff11	*	*staff10	*	*staff9	*staff8	*staff7	*staff6	*staff5	*staff4	*staff3	*	*staff2	*staff1	*
*I"Contrabass	*I"Viola Div. II	*	*I"Viola Div. I	*	*I"Organ	*	*I"Contrabass Trombone	*I"Bass Trombone	*I"Bass Trumpet in C	*I"Trumpet in C I	*I"Bassoon I.	*	*I"English Horn	*I"Oboe I. II.	*
*I'Cb.	*I'Vla. 2.div.	*	*I'Vla. 1.div.	*	*I'Org.	*	*I'Cb. Tbn.	*I'Bass Tbn.	*I'C Bass Tpt.	*I'C 1.Tpt.	*I'1.Bsn.	*	*I'C.A.	*I'1.2.Ob.	*
!!pagebreak:original
*clefG2	*clefC3	*	*clefC3	*	*clefF4	*clefG2	*clefF4	*clefF4	*clefG2	*clefG2	*clefF4	*	*clefG2	*clefG2	*
*ITrd0c0	*	*	*	*	*	*	*ITrd0c0	*	*ITrd0c0	*	*	*	*ITrd4c7	*	*
*k[]	*k[]	*	*k[]	*	*k[]	*k[]	*k[]	*k[]	*k[]	*k[]	*k[]	*	*k[b-]	*k[]	*
*	*	*	*	*	*	*	*	*	*	*	*	*	*	*	*
*M3/4	*M3/4	*	*M3/4	*	*M3/4	*M3/4	*M3/4	*M3/4	*M3/4	*M3/4	*M3/4	*	*M3/4	*M3/4	*
=1	=1	=1	=1	=1	=1	=1	=1	=1	=1	=1	=1	=1	=1	=1	=1
*	*	*	*	*	*	*	*	*	*	*	*	*	*	*^	*
!	!	!	!LO:TX:t=[quarter]=104	!	!	!	!	!LO:TX:a:i:t=[marcato ma non troppo]	!	!	!	!	!LO:TX:b:t=[mf]	!LO:TX:t=[quarter]=104	!	!
4%3r	4%3r	.	4%3r	.	4%3r	8r	4%3r	4C	4%3r	4r	4r	.	4f	8r	4%3r	.
!	!	!	!	!	!	!LO:TX:a:t=  [tranquillo e non f]	!	!	!	!	!	!	!	!	!	!
.	.	.	.	.	.	4c~ 4cc	.	.	.	.	.	.	.	(8ccL	.	mf
.	.	.	.	.	.	.	.	4EEn	.	8r	(8B-XL	mf	(8fL	8B-X	.	.
!	!	!	!	!	!	!	!	!	!	!LO:TX:a:i:t=[staccato]	!	!	!	!	!	!
!	!	!	!	!	!	!	!	!	!	!LO:TX:b:t=[p]	!	!	!	!	!	!
.	.	.	.	.	.	4c~ 4cc	.	.	.	8dL	8dJ	.	8dJ	8ccJ)	.	.
.	.	.	.	.	.	.	.	4C#X	.	8r	8f')	.	8fL)	8r	.	.
.	.	.	.	.	.	[8c~L [8cc	.	.	.	8fJ	8r	.	8f'J	[8ccL	.	.
=2	=2	=2	=2	=2	=2	=2	=2	=2	=2	=2	=2	=2	=2	=2	=2	=2
4%3r	4%3r	.	4%3r	.	4r	8cJ] 8cc]	4%3r	2DD	4%3r	8f	4r	.	4f	8ccJ]	4r	.
.	.	.	.	.	.	8c 8cc	.	.	.	8r	.	.	.	8cc	.	.
.	.	.	.	.	4r	8r	.	.	.	4r	4r	.	8r	8r	4r	.
.	.	.	.	.	.	4c 4cc	.	.	.	.	.	.	(8d-XL	(8ccL	.	.
.	.	.	.	.	8B-XL	.	.	[4AA	.	4r	(8B-XL	.	8F-X	8B-XJ)	8r	.
.	.	.	.	.	8GGJ	8r	.	.	.	.	8GGJ)	.	8g-XJ)	8ryy	[8a-X'~L [8ee-X	.
=3	=3	=3	=3	=3	=3	=3	=3	=3	=3	=3	=3	=3	=3	=3	=3	=3
4%3r	4%3r	.	4%3r	.	8r	4%3r	4%3r	4AA]	4%3r	4r	8r	.	(8GL	8ryy	8a-XJ] 8ee-X]	.
.	.	.	.	.	4c-X	.	.	.	.	.	(4c-X	.	8g-XJ)	4.ryy	4.a'~ 4.ee	.
.	.	.	.	.	.	.	.	4BBB	.	4r	.	.	(8GL	.	.	.
.	.	.	.	.	8AA-XL	.	.	.	.	.	8A-X)	.	8aJ	.	.	.
.	.	.	.	.	8AAAn	.	.	[4BB-X	.	8r	8r	.	8c-XL)	4ryy	[4a'~ [4ee	.
.	.	.	.	.	8En'J	.	.	.	.	[8b-XL	(8F-XL	.	(8F-XJ	.	.	.
*	*	*	*	*	*	*	*	*	*	*	*clefC4	*	*	*	*	*
=4	=4	=4	=4	=4	=4	=4	=4	=4	=4	=4	=4	=4	=4	=4	=4	=4
4%3r	4%3r	.	4%3r	.	4%3r	4%3r	4%3r	4BB-X]	4%3r	8b-XJ]	8g-XJ)	.	8g-X)	8ryy	8a-X'~ 8ee-X	.
.	.	.	.	.	.	.	.	.	.	4.b'~	8r	.	8r	4.ryy	4.a'~] 4.ee]	.
.	.	.	.	.	.	.	.	2A-X	.	.	8r	.	8r	.	.	.
.	.	.	.	.	.	.	.	.	.	.	4F	.	4F	.	.	.
.	.	.	.	.	.	.	.	.	.	[4b'~	.	.	.	4ryy	[4a'~ [4ee	.
.	.	.	.	.	.	.	.	.	.	.	(8e-XL	.	(8e-XL	.	.	.
=5	=5	=5	=5	=5	=5	=5	=5	=5	=5	=5	=5	=5	=5	=5	=5	=5
4%3r	4%3r	.	4%3r	.	4%3r	4%3r	4%3r	4F#X	4%3r	2b-X	8c#XJ	.	8c#XJ	2ryy	2a-X'~ 2ee-X	.
.	.	.	.	.	.	.	.	.	.	.	8d'L)	.	8d'L)	.	.	.
.	.	.	.	.	.	.	.	2GG	.	.	8d'~J	.	8d'~J	.	.	.
.	.	.	.	.	.	.	.	.	.	.	4.d'~	.	8d'~	.	.	.
.	.	.	.	.	.	.	.	.	.	4b'~_	.	.	4r	4ryy	4a'~_ 4ee_	.
*	*	*	*	*	*	*	*	*	*	*	*	*	*	*v	*v	*
!!pagebreak:original
*	*	*	*	*	*	*	*	*	*	*	*clefF4	*	*	*	*
=6	=6	=6	=6	=6	=6	=6	=6	=6	=6	=6	=6	=6	=6	=6	=6
4%3r	4r	.	4%3r	.	4%3r	4%3r	4%3r	[4G	2r	2b-X	4r	.	4%3r	4a-X'~ 4ee-X	.
.	[2B^	f	.	.	.	.	.	8GL]	.	.	4r	.	.	4r	.
.	.	.	.	.	.	.	.	[8FFnJ	.	.	.	.	.	.	.
.	.	.	.	.	.	.	.	4FF_	8b'	4r	(8BL	.	.	4r	.
.	.	.	.	.	.	.	.	.	8r	.	8AAJ	.	.	.	.
=7	=7	=7	=7	=7	=7	=7	=7	=7	=7	=7	=7	=7	=7	=7	=7
!	!	!	!LO:TX:a:B:t=(q. = 72)	!	!	!	!	!	!	!	!	!	!	!	!
4%3r	4B]	.	2a^	f	4%3r	4%3r	4%3r	4.FF]	8r	4%3r	8G'L)	.	4r	4%3r	.
.	.	.	.	.	.	.	.	.	8g'	.	8G'J	.	.	.	.
.	2f#X^	.	.	.	.	.	.	.	4g'~	.	4r	.	4r	.	.
.	.	.	.	.	.	.	.	4.DD	.	.	.	.	.	.	.
!	!	!	!	!	!	!	!	!	!	!	!	!	!LO:TX:b:i:t=marc.	!	!
.	.	.	[4b-X^	.	.	.	.	.	4r	.	4r	.	8r	.	.
.	.	.	.	.	.	.	.	.	.	.	.	.	(8g-X^	.	.
=8	=8	=8	=8	=8	=8	=8	=8	=8	=8	=8	=8	=8	=8	=8	=8
4%3r	2g^	.	4b-X]	.	4%3r	4%3r	4%3r	4.FF#X	4%3r	4%3r	4%3r	.	8A-XL	8r	.
!	!	!	!	!	!	!	!	!	!	!	!	!	!	!LO:TX:a:t=a 2	!
!	!	!	!	!	!	!	!	!	!	!	!	!	!	!LO:TX:b:i:t=marc.	!
.	.	.	.	.	.	.	.	.	.	.	.	.	8ee-X'J)	[8ee-X'~	.
.	.	.	[2A-X^	.	.	.	.	.	.	.	.	.	4r	4ee-]	.
.	.	.	.	.	.	.	.	4.D#X	.	.	.	.	.	.	.
.	[4A-X^ [4e-X	.	.	.	.	.	.	.	.	.	.	.	4r	[4f-X'~	.
=9	=9	=9	=9	=9	=9	=9	=9	=9	=9	=9	=9	=9	=9	=9	=9
!	!	!	!	!	!	!	!LO:TX:a:i:t=marc. ma non troppo	!	!	!	!	!	!	!	!
4r	2A-X] 2e-X]	.	4A-X]	.	4%3r	4%3r	2.E	4%3r	4%3r	4%3r	4%3r	.	4%3r	8f-XL]	.
.	.	.	.	.	.	.	.	.	.	.	.	.	.	(8dd-XJ	.
!LO:TX:b:i:t=non f, ten.	!	!	!	!	!	!	!	!	!	!	!	!	!	!	!
[2g#X	.	.	4f^	.	.	.	.	.	.	.	.	.	.	2fn)	.
.	4en^ [4dd	.	[4e^ [4dd	.	.	.	.	.	.	.	.	.	.	.	.
=10	=10	=10	=10	=10	=10	=10	=10	=10	=10	=10	=10	=10	=10	=10	=10
2g#X]	2dd]	.	4e] 4dd]	.	4%3r	4%3r	2.B	4%3r	4%3r	4%3r	4%3r	.	4%3r	(8dd-XL	.
.	.	.	.	.	.	.	.	.	.	.	.	.	.	8fJ)	.
.	.	.	2c^	.	.	.	.	.	.	.	.	.	.	4r	.
4r	(4c#X^	.	.	.	.	.	.	.	.	.	.	.	.	(8dd-L	.
.	.	.	.	.	.	.	.	.	.	.	.	.	.	8fJ)	.
=11	=11	=11	=11	=11	=11	=11	=11	=11	=11	=11	=11	=11	=11	=11	=11
4r	4cn)	.	2d^	.	4%3r	4%3r	[4C#X	4%3r	4r	4%3r	4r	.	4%3r	4%3r	.
4r	2E^	.	.	.	.	.	8C#L]	.	8r	.	8r	.	.	.	.
.	.	.	.	.	.	.	[8cnJ	.	8dd'	.	(8dL	.	.	.	.
!LO:TX:b:i:t=sim.	!	!	!	!	!	!	!	!	!	!	!	!	!	!	!
[4e	.	.	[4g^	.	.	.	4c_	.	8r	.	8CJ)	.	.	.	.
.	.	.	.	.	.	.	.	.	8c'	.	8r	.	.	.	.
=	=	=	=	=	=	=	=	=	=	=	=	=	=	=	=
*-	*-	*-	*-	*-	*-	*-	*-	*-	*-	*-	*-	*-	*-	*-	*-
!!!system-decoration: [(s1,s2,s3)][(s4,s5)][(s6,s7)][([({(s8,s9)})])][(s10,s11,s12)]
